X: 282
T: Benim Gönlüm Sarhoştur...
C: Kaptanzâde Ali Rıza Bey
O: Turkey
F: http://compmusic.upf.edu/node/140
N: nihavent--fantezi--nimsofyan--benim_gonlum--kaptanzade_ali_riza_bey
N: makam= nihavent
N: form= fantezi
N: usul= nimsofyan = 2/4
M: 2/4
L: 1/16
K: C _B _e  
Q: 1/4=99
%%MIDI tuningsystem comma53
z2g2 f2e2  | d4 dcBc  | d8  | d8  | z2e2 d2c2  | \
w:   |   |   |   |   | 
B4 BABc  | A8  | 
w:   |   | 
A8  | z2B2 A2B2  | c4 B4  | d8  | B8  | A2B2 c2B2  | \
w:   |   |   |   |   |   | 
d4 B2A2  | G2G2 A2B2  | c2d2 e2f2  | 
w:   |   |   | 
z2g2 f2e2  | d4 dcBc  | d8  | d8  | z2e2 d2c2  | \
w:   |   |   |   |   | 
B4 BABc  | A8  | 
w:   |   | 
A8  | z2B2 A2B2  | c4 B4  | d8  | B8  | A2B2 c2B2  | \
w:   |   |   |   |   |   | 
d4 B2A2  | G2g2 f2e2  | d2c2 B2A2  | 
w:   |   |   | 
G2G2 A2B2  | c4 B4  | e8  | d8  | d2e2 e2d2  | \
w:  *  Be nim  gön  |  lüm  sar  |  hoş  |  tur    |  Yıl dız la rın   | 
d2c2 c2B2  | d8  | d8  | z2c2 B2A2  | 
w:  al *  tın  |  da    |   |  Se viş mek   | 
B4 c4  | d8  | B8  | A2B2 c2B2  | d4 B2A2  | G2g2 f2e2  | \
w:  ah  ne   |  hoş  |  tur    |  Yıl dız la rın_  |  al tın  |  da   SAZ  | 
d2c2 B2A2  | G2G2 A2B2  | 
w:   |  *  Be nim  gön  | 
c4 B4  | e8  | d8  | d2e2 e2d2  | d2c2 c2B2  | d8  | d8  | \
w:  lüm  sar  |  hoş  |  tur    |  Yıl dız la rın   |  al *  tın  |  da    |   | 
z2c2 B2A2  | B4 c4  | d8  | 
w:  Se viş mek   |  ah  ne   |  hoş  | 
B8  | A2B2 c2B2  | d4 B2A2  | G2ed ^c2d2  | \
w:  tur    |  Yıl dız la rın_  |  al tın  |  da   SAZ  | 
e2=e2 f2^f2  | .g4 .f4  | e3{f}d d2z2  | 
w:   |  Yan mam   |  gön *  *  lüm   | 
z2f4e2  | e2d2 d4  | e2e4d2  | d2c2 c4  | z2d4c2  | \
w:  yan  |  sa  *  da    |  E cel   |  be ni   |  al  | 
B2A2 B4  | z2B2 A2B2  | 
w:  sa  *  da    |  Göz le rim   | 
c2B2 B4  | d8  | B8  | A2B2 c2B2  | d4 B2A2  | \
w:  ka pan  |  sa   |  da    |  Yıl dız la rın   |  al tın  | 
G2ed ^c2d2  | e2=e2 f2^f2  | 
w:  da   SAZ  |   | 
.g4 .f4  | e3{f}d d2z2  | z2f4e2  | e2d2 d4  | \
w:  Yan mam   |  gön *  *  lüm   |  yan  |  sa  *  da    | 
e2e4d2  | d2c2 c4  | z2d4c2  | 
w:  E cel   |  be ni   |  al  | 
B2A2 B4  | z2B2 A2B2  | c2B2 B4  | d8  | B8  | \
w:  sa  *  da    |  Göz le rim   |  ka pan  |  sa   |  da    | 
A2B2 c2B2  | d4 B2A2  | G8  | G8  | 
w:  Yıl dız la rın   |  al tın  |  da    |   | 
z2g2 f2e2  | d4 dcBc  | d8  | d8  | z2e2 d2c2  | \
w:   |   |   |   |   | 
B4 BABc  | A8  | 
w:   |   | 
A8  | z2B2 A2B2  | c4 B4  | d8  | B8  | A2B2 c2B2  | \
w:   |   |   |   |   |   | 
d4 B2A2  | G2G2 A2B2  | c2d2 e2f2  | 
w:   |   |   | 
z2g2 f2e2  | d4 dcBc  | d8  | d8  | z2e2 d2c2  | \
w:   |   |   |   |   | 
B4 BABc  | A8  | 
w:   |   | 
A8  | z2B2 A2B2  | c4 B4  | d8  | B8  | A2B2 c2B2  | \
w:   |   |   |   |   |   | 
d4 B2A2  | G2g2 f2e2  | d2c2 B2A2  | 
w:   |   |   | 
G2G2 A2B2  | c4 B4  | e8  | d8  | d2e2 e2d2  | \
w:  *  Be nim  gön  |  lüm  sar  |  hoş  |  tur    |  Yıl dız la rın   | 
d2c2 c2B2  | d8  | d8  | z2c2 B2A2  | 
w:  al *  tın  |  da    |   |  Se viş mek   | 
B4 c4  | d8  | B8  | A2B2 c2B2  | d4 B2A2  | G2g2 f2e2  | \
w:  ah  ne   |  hoş  |  tur    |  Yıl dız la rın_  |  al tın  |  da   SAZ  | 
d2c2 B2A2  | G2G2 A2B2  | 
w:   |  *  Be nim  gön  | 
c4 B4  | e8  | d8  | d2e2 e2d2  | d2c2 c2B2  | d8  | d8  | \
w:  lüm  sar  |  hoş  |  tur    |  Yıl dız la rın   |  al *  tın  |  da    |   | 
z2c2 B2A2  | B4 c4  | d8  | 
w:  Se viş mek   |  ah  ne   |  hoş  | 
B8  | A2B2 c2B2  | d4 B2A2  | G2ed ^c2d2  | \
w:  tur    |  Yıl dız la rın_  |  al tın  |  da   SAZ  | 
e2=e2 f2^f2  | .g4 .f4  | e3{f}d d2z2  | 
w:   |  Yan mam   |  gön *  *  lüm   | 
z2f4e2  | e2d2 d4  | e2e4d2  | d2c2 c4  | z2d4c2  | \
w:  yan  |  sa  *  da    |  E cel   |  be ni   |  al  | 
B2A2 B4  | z2B2 A2B2  | 
w:  sa  *  da    |  Göz le rim   | 
c2B2 B4  | d8  | B8  | A2B2 c2B2  | d4 B2A2  | \
w:  ka pan  |  sa   |  da    |  Yıl dız la rın   |  al tın  | 
G2ed ^c2d2  | e2=e2 f2^f2  | 
w:  da   SAZ  |   | 
.g4 .f4  | e3{f}d d2z2  | z2f4e2  | e2d2 d4  | \
w:  Yan mam   |  gön *  *  lüm   |  yan  |  sa  *  da    | 
e2e4d2  | d2c2 c4  | z2d4c2  | 
w:  E cel   |  be ni   |  al  | 
B2A2 B4  | z2B2 A2B2  | c2B2 B4  | d8  | B8  | \
w:  sa  *  da    |  Göz le rim   |  ka pan  |  sa   |  da    | 
A2B2 c2B2  | d4 B2A2  | G8  | G8  | 
w:  Yıl dız la rın   |  al tın  |  da    |   | 
|


